assets/images/icons/src/dropbox.svg

<?xml version="1.0" encoding="utf-8"?>
<!-- Generated by IcoMoon.io -->
<!DOCTYPE svg PUBLIC "-//W3C//DTD SVG 1.1//EN" "http://www.w3.org/Graphics/SVG/1.1/DTD/svg11.dtd">
<svg version="1.1" xmlns="http://www.w3.org/2000/svg" xmlns:xlink="http://www.w3.org/1999/xlink" width="14" height="14" viewBox="0 0 14 14">
<path fill="#444444" d="M3.141 5.523l3.859 2.383-2.672 2.227-3.828-2.492zM10.844 9.859v0.844l-3.828 2.289v0.008l-0.008-0.008-0.008 0.008v-0.008l-3.82-2.289v-0.844l1.148 0.75 2.672-2.219v-0.016l0.008 0.008 0.008-0.008v0.016l2.68 2.219zM4.328 0.922l2.672 2.227-3.859 2.375-2.641-2.109zM10.859 5.523l2.641 2.117-3.82 2.492-2.68-2.227zM9.68 0.922l3.82 2.492-2.641 2.109-3.859-2.375z"></path>
</svg>

<svg xmlns="http://www.w3.org/2000/svg" width="14" height="14" viewBox="0 0 14 14"><path fill="#444" d="M3.141 5.523L7 7.906l-2.672 2.227L.5 7.641zm7.703 4.336v.844l-3.828 2.289V13l-.008-.008L7 13v-.008l-3.82-2.289v-.844l1.148.75L7 8.39v-.016l.008.008.008-.008v.016l2.68 2.219zM4.328.922L7 3.149 3.141 5.524.5 3.415zm6.531 4.601L13.5 7.64l-3.82 2.492L7 7.905zM9.68.922l3.82 2.492-2.641 2.109L7 3.148z"/></svg>
